X:1
T:James Gibb editions
T:O Lord, in Thee - Tallis
T:#
%%score [ 1 2 3 4 ]
L:1/8
Q:1/4=108
M:3/2
K:Bb
V:1 treble nm="Soprano" snm="S"
V:2 treble nm="Alto" snm="A"
V:3 treble-8 nm="Tenor" snm="T"
V:4 bass nm="Bass" snm="B"
V:1
"^Thomas Tallis\n(1505-85)""^Oh Lord, in Thee is all my trust" G2 | G4 A2 G4 F2 | G4 ^F2 G4 G2 | %3
w: O|Lord, in Thee is|all my trust. Give|
 B4 B2 A4 G2 | G4 ^F2 G4 G2 |[M:3/2] B4 B2 c4 B2 | B4 A2 B4 B2 | B4 G2 A4 G2 | G4 ^F2 G4 G2 | %9
w: ear un- to my|woe- ful cries. Re-|fuse me not, that|am un- just, but|bow- ing down thy|heav'n- ly eyes, be-|
 B4 c2 d4 d2 | d4 ^c2 d4 A2 | =c4 d2 =e4 d2 | d4 ^c2 d4 d2 | f4 =e2 d6 | c2 B2 B2 A4 A2 | %15
w: hold how I do|still la- ment my|sins where- in I|Thee of- fend. O|Lord, for them|shall I be shent, sith|
 c4 B2 A4 G2 | G4 ^F2 G4 || G2 | G4 A2 G4 =F2 | (G3 A) ^F2 G4 G2 | B4 B2 A4 G2 | G3 (A ^F2) G4 G2 | %22
w: Thee to please I|do in- tend?|No,|no, not so! Thy|will * is bent to|deal with sin- ners|in Thine * ire: but|
 B4 B2 c4 B2 | B4 A2 B4 B2 | B4 G2 A4 G2 | G4 ^F2 G4 G2 | B4 c2 d4 d2 | d4 ^c2 d4 A2 | %28
w: when in heart they|shall re- pent Thou|grant'st with speed their|just de- sire. To|Thee there- fore still|shall I cry, to|
 !courtesy!=c4 d2 =e4 d2 | d4 ^c2 d4 d2 | f4 =e2 d6 | c2 B2 B2 A4 A2 | c4 B2 A4 G2 | G4 ^F2 G4 || %34
w: wash a- way my|sin- ful crime. Thy|blood, O Lord,|is not yet dry, but|that it may help|me in time.|
 G2 | G4 A2 G4 =F2 | G4 ^F2 G4 G2 | B4 B2 A4 G2 | G4 ^F2 G4 G2 | B4 B2 c4 B2 | B4 A2 B4 B2 | %41
w: Haste|now, O Lord, haste|now, I say, to|pour on me the|gifts of grace. That|when this life must|flit a- way in|
 B4 G2 A4 G2 | G4 ^F2 G4 G2 | B4 c2 d6 | d2 d2 ^c2 d4 A2 | !courtesy!=c4 d2 =e4 d2 | d4 ^c2 d4 |: %47
w: heav'n with Thee I|may have place where|Thou dost reign|e- ter- nal- ly with|God which once did|down Thee send.|
 d2 | f4 =e2 d6 | c2 BB B2 A4 A2 | c4 B2 A4 G2 | G3 (A ^F2) G6 :| G8 | G8 |] %54
w: Where|an- gels sing|con- tin- u- al- ly: 'To|Thee be praise, world|with- out * end.'|A-|men.|
V:2
 D2 | D4 F2 D4 D2 | D2 D4 D4 D2 | G4 F2 F4 D2 | E2 D4 D4 D2 |[M:3/2] G4 G2 A4 F2 | G2 F4 D4 G2 | %7
w: O|Lord, in Thee is|all my trust. Give|ear un- to my|woe- ful cries. Re-|fuse me not, that|am un- just, but|
 G4 E2 F4 D2 | E2 D4 D4 D2 | G4 A2 B6 | G2 A2 A2 A4 A2 | A4 F2 c4 B2 | G2 A4 A4 B2 | %13
w: bow- ing down thy|heav'n- ly eyes, be-|hold how I|do still la- ment my|sins where- in I|Thee of- fend. O|
 A4 A2 (D3 =EFG) | A2 G2 G2 ^F4 =F2 | G4 F2 F4 D2 | E2 D4 D4 || D2 | D4 F2 D4 D2 | D2 D4 D4 D2 | %20
w: Lord, for them * * *|shall I be shent, sith|Thee to please I|do in- tend?|No,|no, not so! Thy|will is bent to|
 G4 F2 F4 D2 | E2 D4 D4 D2 | G4 G2 A4 F2 | G2 F4 D4 G2 | G4 E2 F4 D2 | E2 D4 D4 D2 | G4 A2 B6 | %27
w: deal with sin- ners|in Thine ire: but|when in heart they|shall re- pent Thou|grant'st with speed their|just de- sire. To|Thee there- fore|
 G2 A2 A2 A4 A2 | A4 F2 c4 B2 | G2 A4 A4 B2 | A4 G2 (D3 =EFG) | A2 G2 G2 ^F4 =F2 | G4 F2 F4 D2 | %33
w: still shall I cry, to|wash a- way my|sin- ful crime. Thy|blood, O Lord, * * *|is not yet dry, but|that it may help|
 E2 D4 D4 || D2 | D4 F2 D4 D2 | D2 D4 D4 D2 | G4 F2 F4 D2 | E2 D4 D4 D2 | G4 G2 A4 F2 | %40
w: me in time.|Haste|now, O Lord, haste|now, I say, to|pour on me the|gifts of grace. That|when this life must|
 G2 F4 D4 G2 | G4 E2 F4 D2 | E2 D4 D4 D2 | G4 A2 B6 | G2 A2 A2 A4 A2 | A4 F2 c4 B2 | G2 A4 A4 |: %47
w: flit a- way in|heav'n with Thee I|may have place where|Thou dost reign|e- ter- nal- ly with|God which once did|down Thee send.|
 B2 | A4 A2 D3 (=EFG) | A2 G2 G2 ^F4 =F2 | G4 F2 F4 D2 | E2 D4 D6 :| E8 | D8 |] %54
w: Where|an- gels sing- con\- * *|tin- u- al- ly: 'To|Thee be praise, world|with- out end.'|A-|men.|
V:3
 G2 | B4 c2 B4 A2 | B2 A4 G4 B2 | d4 d2 c4 B2 | c2 A4 G4 G2 |[M:3/2][K:treble-8] d4 d2 f4 d2 | %6
w: O|Lord, in Thee is|all my trust. Give|ear un- to my|woe- ful cries. Re-|fuse me not, that|
 e2 c4 B4 d2 | d4 c2 c4 B2 | c2 A4 G4 G2 | d4 f2 f4 g2 | d2 =e4 d4 f2 | =e4 d2 g4 f2 | %12
w: am un- just, but|bow- ing down Thy|heav'n- ly eyes, be-|hold how I do|still la- ment my|sins where- in I|
 d2 =e4 d4 d2 | d4 c2 f6 | f2 d2 d2 d4 c2 | e4 d2 c4 B2 | c2 A4 G4 || G2 | B4 c2 B4 A2 | %19
w: Thee of- fend. O|Lord, for them|shall I be shent, sith|Thee to please I|do in- tend?|No,|no, not so! Thy|
 B2 A4 G4 B2 | d4 d2 c4 B2 | c2 A4 G4 G2 | d4 d2 f4 d2 | e2 c4 B4 d2 | d4 c2 c4 B2 | c2 A4 G4 G2 | %26
w: will is bent to|deal with sin- ners|in Thine ire: but|when in heart they|shall re- pent Thou|grant'st with speed their|just de- sire. To|
 d4 f2 f4 g2 | d2 =e4 d4 f2 | =e4 d2 g4 f2 | d2 =e4 d4 d2 | d4 c2 f6 | f2 d2 d2 d4 c2 | %32
w: Thee there- fore still|shall I cry, to|wash a- way my|sin- ful crime. Thy|blood, O Lord,|is not yet dry, but|
 e4 d2 c4 B2 | c2 A4 G4 || G2 | B4 c2 B4 A2 | B2 A4 G4 B2 | d4 d2 c4 B2 | c2 A4 G4 G2 | %39
w: that it may help|me in time.|Haste|now, O Lord, haste|now, I say, to|pour on me the|gifts of grace. That|
 d4 d2 f4 d2 | e2 c4 B4 d2 | d4 c2 c4 B2 | c2 A4 G4 G2 | d4 f2 f4 g2 | d2 =e4 d4 f2 | %45
w: when this life must|flit a- way in|heav'n with Thee I|may have place where|Thou dost reign e-|ter- nal- ly with|
 =e4 d2 g4 f2 | d2 =e4 d4 |: d2 | d4 c2 f6 | f2 dd d2 d4 c2 | e4 d2 c4 B2 | c2 A4 G6 :| (c6 =BA) | %53
w: God which once did|down Thee send.|Where|an- gels sing|con- tin- u- al- ly: 'To|Thee be praise, world|with- out end.'|A\- * *|
 =B8 |] %54
w: men.|
V:4
 G,2 | G,4 F,2 G,4 D,2 | G,2 D,4 G,4 G,2 | G,4 B,2 F,4 G,2 | C,2 D,4 G,4 G,2 | %5
w: O|Lord, in Thee is|all my trust. Give|ear un- to my|woe- ful cries. Re-|
[M:3/2] G,4 G,2 F,4 B,2 | E,2 F,4 B,,4 G,2 | G,4 C,2 F,4 G,2 | C,2 D,4 G,4 G,2 | G,4 F,2 B,4 G,2 | %10
w: fuse me not, that|am un- just, but|bow- ing down Thy|heav'n- ly eyes, be-|hold how I do|
 B,2 A,4 D,4 D2 | A,4 B,2 C4 D2 | B,2 A,4 D,4 G,2 | D,4 A,2 B,6 | F,2 G,2 G,2 D,4 F,2 | %15
w: still la- ment my|sins where- in I|Thee of- fend. O|Lord, for them|shall I be shent, sith|
 C,4 D,2 F,4 G,2 | C,2 D,4 G,4 || G,2 | G,4 F,2 G,4 D,2 | G,2 D,4 G,4 G,2 | G,4 B,2 F,4 G,2 | %21
w: Thee to please I|do in- tend?|No,|no, not so! Thy|will is bent to|deal with sin- ners|
 C,2 D,4 G,4 G,2 | G,4 G,2 F,4 B,2 | E,2 F,4 B,,4 G,2 | G,4 C,2 F,4 G,2 | C,2 D,4 G,4 G,2 | %26
w: in Thine ire: but|when in heart they|shall re- pent Thou|grant'st with speed their|just de- sire. To|
 G,4 F,2 B,4 G,2 | B,2 A,4 D,4 D2 | A,4 B,2 C4 D2 | B,2 A,4 D,4 G,2 | D,4 A,2 B,6 | %31
w: Thee there- fore still|shall I cry, to|wash a- way my|sin- ful crime. Thy|blood, O Lord,|
 F,2 G,2 G,2 D,4 F,2 | C,4 D,2 F,4 G,2 | C,2 D,4 G,4 || G,2 | G,4 F,2 G,4 D,2 | G,2 D,4 G,4 G,2 | %37
w: is not yet dry, but|that it may help|me in time.|Haste|now, O Lord, haste|now, I say, to|
 G,4 B,2 F,4 G,2 | C,2 D,4 G,4 G,2 | G,4 G,2 F,4 B,2 | E,2 F,4 B,,4 G,2 | G,4 C,2 F,4 G,2 | %42
w: pour on me the|gifts of grace. That|when this life must|flit a- way in|heav'n with Thee I|
 C,2 D,4 G,4 G,2 | G,4 F,2 B,4 G,2 | B,2 A,4 D,4 D2 | A,4 B,2 C4 D2 | B,2 A,4 D,4 |: G,2 | %48
w: may have place where|Thou dost reign e-|ter- nal- ly with|God which once did|down Thee send.|Where|
 D,4 A,2 B,6 | F,2 G,G, G,2 D,4 F,2 | C,4 D,2 F,4 G,2 | C,2 D,4 G,6 :| C,8 | G,8 |] %54
w: an- gels sing|con- tin- u- al- ly: 'To|Thee be praise, world|with- out end.'|A-|men.|

